src/assets/clients/24vision.svg

<svg width="82" height="111" viewBox="0 0 82 111" fill="none" xmlns="http://www.w3.org/2000/svg">
<g clip-path="url(#clip0_1_426)">
<path d="M19.2635 0.481201H23.0135C29.7335 1.5812 35.6435 6.8512 36.7435 13.6912C38.4535 22.0412 32.3935 31.0112 23.9335 32.3412C14.8035 34.3812 5.20348 26.8212 4.98348 17.4912C4.25348 9.1412 11.0535 1.4412 19.2635 0.481201ZM38.0735 0.481201H43.6135C51.4935 1.7912 58.9035 6.5712 62.4435 13.8712C66.1935 20.8112 64.9435 28.9112 65.1335 36.4612C65.2435 44.3112 61.4735 52.1512 55.0235 56.6912C50.1935 60.3812 44.0335 61.5812 38.0635 61.4512C38.1435 54.8012 38.0035 48.1412 37.7835 41.4912C38.2835 27.8312 37.9835 14.1512 38.0735 0.481201ZM65.5835 62.0512C69.3035 62.1112 73.0835 61.6412 76.7435 62.4512C79.6235 63.2412 81.0935 66.0612 81.8535 68.7212V79.0612C81.1135 81.7412 79.5935 84.5612 76.7135 85.3612C73.0635 86.1712 69.2935 85.6712 65.5835 85.7512C65.5535 77.8512 65.5535 69.9512 65.5835 62.0512Z" fill="#002A10"/>
<path d="M0.863516 61.4611C12.8135 49.3011 25.0335 37.4111 37.1535 25.4211C37.1335 37.4511 37.1735 49.4911 37.1535 61.5211C25.0635 61.7611 12.9535 61.8611 0.863516 61.4611ZM0.853516 62.1111C17.2035 62.6211 33.5535 62.0011 49.9035 62.1211C42.8335 69.2111 35.8135 76.3411 28.7835 83.4511C27.6935 84.4511 26.5835 85.8011 24.9235 85.6011C16.9035 85.6811 8.87352 85.5811 0.853516 85.6211L0.853516 62.1111ZM27.5835 85.6711C35.1135 77.6311 43.1135 70.0411 50.8135 62.1711C55.5335 62.1411 60.2535 62.1411 64.9735 62.1711C64.9635 70.0711 64.9635 77.9811 64.9735 85.8811C52.5135 85.6711 40.0435 85.8011 27.5835 85.6711ZM28.1935 86.2511C36.0035 86.2311 43.8235 86.2111 51.6335 86.2711C51.6735 94.3411 51.6535 102.411 51.6535 110.481H27.1735C27.3935 102.401 27.7935 94.3211 28.1935 86.2511Z" fill="#1F893C"/>
</g>
<defs>
<clipPath id="clip0_1_426">
<rect width="81" height="110" fill="white" transform="translate(0.853516 0.481201)"/>
</clipPath>
</defs>
</svg>

<svg xmlns="http://www.w3.org/2000/svg" fill="none" viewBox="0 0 82 111"><g clip-path="url(#a)"><path fill="#002A10" d="M19.264.481h3.75c6.72 1.1 12.63 6.37 13.73 13.21 1.71 8.35-4.35 17.32-12.81 18.65-9.13 2.04-18.73-5.52-18.95-14.85-.73-8.35 6.07-16.05 14.28-17.01Zm18.81 0h5.54c7.88 1.31 15.29 6.09 18.83 13.39 3.75 6.94 2.5 15.04 2.69 22.59.11 7.85-3.66 15.69-10.11 20.23-4.83 3.69-10.99 4.89-16.96 4.76.08-6.65-.06-13.31-.28-19.96.5-13.66.2-27.34.29-41.01Zm27.51 61.57c3.72.06 7.5-.41 11.16.4 2.88.79 4.35 3.61 5.11 6.27v10.34c-.74 2.68-2.26 5.5-5.14 6.3-3.65.81-7.42.31-11.13.39-.03-7.9-.03-15.8 0-23.7Z"/><path fill="#1F893C" d="M.864 61.461c11.95-12.16 24.17-24.05 36.29-36.04-.02 12.03.02 24.07 0 36.1-12.09.24-24.2.34-36.29-.06Zm-.01.65c16.35.51 32.7-.11 49.05.01-7.07 7.09-14.09 14.22-21.12 21.33-1.09 1-2.2 2.35-3.86 2.15-8.02.08-16.05-.02-24.07.02v-23.51Zm26.73 23.56c7.53-8.04 15.53-15.63 23.23-23.5 4.72-.03 9.44-.03 14.16 0-.01 7.9-.01 15.81 0 23.71-12.46-.21-24.93-.08-37.39-.21Zm.61.58c7.81-.02 15.63-.04 23.44.02.04 8.07.02 16.14.02 24.21h-24.48c.22-8.08.62-16.16 1.02-24.23Z"/></g><defs><clipPath id="a"><path fill="#fff" d="M.854.481h81v110h-81z"/></clipPath></defs></svg>
